X:697
T: Gneevgullia
Z: Piano Box Version by Martin Fleischmann
H: Created 2015-04-21 /  Last Modified 2015-04-25
R: reel
M: 4/4
L: 1/8
K: Edor
|E3F G z EF|GBAG FDDF|~E3 F GFGB|dBAd BEEE|
E3F G2 (3DEF|GBAG FDDF|~E3 F GFGB|dBAd BEEe||
|efed cdeg|fd ~d2 dfaf|g2ed (3Bcd ec|dBAd BEEe|
efed cdeg|fd dc dfaf|bfaf gged | (3Bcd Ad BEEF||
|:GBdg gedB|ADDD FGAc|BEEE G3 B|dBAd BEEE:|

